mimetypes/symbolic/x-office-spreadsheet-symbolic.svg

<?xml version="1.0" encoding="UTF-8" standalone="no"?>
<!-- Created with Inkscape (http://www.inkscape.org/) -->

<svg
   xmlns:osb="http://www.openswatchbook.org/uri/2009/osb"
   xmlns:dc="http://purl.org/dc/elements/1.1/"
   xmlns:cc="http://creativecommons.org/ns#"
   xmlns:rdf="http://www.w3.org/1999/02/22-rdf-syntax-ns#"
   xmlns:svg="http://www.w3.org/2000/svg"
   xmlns="http://www.w3.org/2000/svg"
   xmlns:sodipodi="http://sodipodi.sourceforge.net/DTD/sodipodi-0.dtd"
   xmlns:inkscape="http://www.inkscape.org/namespaces/inkscape"
   sodipodi:docname="x-office-spreadsheet-symbolic.svg"
   inkscape:export-filename="/home/sam/source-symbolic.png"
   inkscape:export-xdpi="270"
   inkscape:export-ydpi="270"
   height="16"
   id="svg7384"
   style="enable-background:new"
   version="1.1"
   inkscape:version="0.91 r13725"
   width="16">
  <sodipodi:namedview
     inkscape:bbox-nodes="true"
     inkscape:bbox-paths="false"
     bordercolor="#666666"
     borderlayer="false"
     borderopacity="1"
     inkscape:current-layer="svg7384"
     inkscape:cx="0.41858043"
     inkscape:cy="6.7137212"
     gridtolerance="10"
     inkscape:guide-bbox="true"
     guidetolerance="10"
     id="namedview88"
     inkscape:object-nodes="true"
     inkscape:object-paths="true"
     objecttolerance="10"
     pagecolor="#f7f7f7"
     inkscape:pageopacity="1"
     inkscape:pageshadow="2"
     showborder="true"
     showgrid="false"
     showguides="true"
     inkscape:showpageshadow="false"
     inkscape:snap-bbox="true"
     inkscape:snap-bbox-edge-midpoints="false"
     inkscape:snap-bbox-midpoints="true"
     inkscape:snap-center="false"
     inkscape:snap-global="true"
     inkscape:snap-grids="true"
     inkscape:snap-intersection-paths="true"
     inkscape:snap-midpoints="true"
     inkscape:snap-nodes="true"
     inkscape:snap-object-midpoints="true"
     inkscape:snap-others="true"
     inkscape:snap-page="false"
     inkscape:snap-smooth-nodes="true"
     inkscape:snap-to-guides="true"
     inkscape:window-height="642"
     inkscape:window-maximized="1"
     inkscape:window-width="1366"
     inkscape:window-x="0"
     inkscape:window-y="33"
     inkscape:zoom="31.999999">
    <inkscape:grid
       color="#000000"
       dotted="false"
       empcolor="#0800ff"
       empopacity="0.4627451"
       empspacing="4"
       enabled="true"
       id="grid4866"
       opacity="0.16470588"
       originx="-463.99998"
       originy="-548.00336"
       snapvisiblegridlinesonly="true"
       spacingx="0.25px"
       spacingy="0.25px"
       type="xygrid"
       visible="true" />
  </sodipodi:namedview>
  <metadata
     id="metadata90">
    <rdf:RDF>
      <cc:Work
         rdf:about="">
        <dc:format>image/svg+xml</dc:format>
        <dc:type
           rdf:resource="http://purl.org/dc/dcmitype/StillImage" />
        <dc:title>Paper Symbolic Icon Theme</dc:title>
      </cc:Work>
    </rdf:RDF>
  </metadata>
  <title
     id="title8473">Paper Symbolic Icon Theme</title>
  <defs
     id="defs7386">
    <linearGradient
       id="linearGradient5606"
       osb:paint="solid">
      <stop
         id="stop5608"
         offset="0"
         style="stop-color:#000000;stop-opacity:1;" />
    </linearGradient>
    <linearGradient
       id="linearGradient4207"
       osb:paint="gradient">
      <stop
         style="stop-color:#3498db;stop-opacity:1;"
         offset="0"
         id="stop3371" />
      <stop
         style="stop-color:#3498db;stop-opacity:0;"
         offset="1"
         id="stop3373" />
    </linearGradient>
  </defs>
  <path
     style="opacity:1;fill:#bebebe;fill-opacity:1;fill-rule:evenodd;stroke:none;stroke-width:1px;stroke-linecap:butt;stroke-linejoin:miter;stroke-opacity:1"
     d="M 12.189453 2.0058594 L 7.703125 2.4277344 L 3.0761719 2.4277344 C 2.5041297 2.3853362 2.2714844 2.4387353 2.2714844 2.9570312 L 2.2714844 12.919922 C 2.2355544 13.48869 2.4730389 13.476565 3.0292969 13.476562 L 7.7539062 13.476562 L 12.228516 14 C 12.574542 14 12.690322 13.881654 12.726562 13.65625 L 13.130859 13.65625 C 13.222899 13.65625 13.301054 13.659038 13.380859 13.648438 C 13.460669 13.637778 13.555732 13.605868 13.623047 13.529297 C 13.690367 13.452727 13.714077 13.360652 13.724609 13.263672 C 13.734969 13.168302 13.732363 13.058165 13.726562 12.916016 L 13.726562 12.910156 L 13.726562 2.953125 C 13.726564 2.6903518 13.747743 2.5252781 13.626953 2.3671875 C 13.566563 2.2881425 13.464742 2.2450991 13.378906 2.234375 C 13.293066 2.223651 13.211389 2.2311075 13.111328 2.2421875 L 13.130859 2.2402344 L 12.736328 2.2402344 C 12.684956 2.0485021 12.556164 1.9778379 12.189453 2.0058594 z M 13.335938 2.5898438 C 13.326237 2.5771137 13.361328 2.697602 13.361328 2.953125 L 13.361328 12.919922 L 13.361328 12.923828 C 13.367228 13.06255 13.365975 13.163882 13.359375 13.224609 C 13.352775 13.285339 13.342179 13.295599 13.349609 13.287109 C 13.357109 13.278609 13.368391 13.280356 13.332031 13.285156 C 13.295681 13.290056 13.22487 13.291016 13.130859 13.291016 L 12.740234 13.291016 C 12.738214 13.250414 12.739048 13.220172 12.736328 13.175781 L 12.775391 2.6347656 C 12.775391 2.623758 12.773469 2.6181016 12.773438 2.6074219 L 13.140625 2.6074219 L 13.150391 2.6054688 C 13.241651 2.5953567 13.306427 2.5942103 13.333984 2.5976562 C 13.361544 2.6010963 13.340736 2.5962037 13.335938 2.5898438 z M 9.125 5.2871094 L 10.259766 5.2871094 C 10.381972 5.2870608 10.482311 5.3856062 10.482422 5.5078125 L 10.486328 10.646484 C 10.486439 10.768691 10.387831 10.867138 10.265625 10.867188 L 9.1308594 10.869141 C 9.008653 10.869189 8.9083135 10.770644 8.9082031 10.648438 L 8.9042969 5.5078125 C 8.9041865 5.3856062 9.0027936 5.287158 9.125 5.2871094 z M 6.8183594 6.7246094 L 7.9550781 6.7246094 C 8.0772845 6.7245734 8.1756323 6.8231062 8.1757812 6.9453125 L 8.1796875 10.636719 C 8.1798366 10.758925 8.0831439 10.857386 7.9609375 10.857422 L 6.8242188 10.857422 C 6.7020124 10.857458 6.6036647 10.758925 6.6035156 10.636719 L 6.5996094 6.9453125 C 6.5994603 6.8231062 6.696153 6.7246453 6.8183594 6.7246094 z M 4.5976562 8.1835938 L 5.7324219 8.1835938 C 5.8546283 8.1835704 5.9548485 8.2820907 5.9550781 8.4042969 L 5.9589844 10.646484 C 5.959214 10.768691 5.8604876 10.867164 5.7382812 10.867188 L 4.6015625 10.867188 C 4.4793561 10.86721 4.381089 10.768691 4.3808594 10.646484 L 4.3769531 8.4042969 C 4.3767235 8.2820907 4.4754499 8.183617 4.5976562 8.1835938 z "
     id="path4248" />
</svg>

<svg xmlns="http://www.w3.org/2000/svg" viewBox="0 0 16 16">
  <path fill="#bebebe" d="M12.189 2.006l-4.486.422H3.076c-.572-.043-.805.011-.805.529v9.963c-.035.569.202.557.758.557h4.725l4.475.523c.346 0 .461-.118.498-.344h.404c.092 0 .17.003.25-.008a.38.38 0 0 0 .242-.119.46.46 0 0 0 .102-.265c.01-.096.007-.206.002-.348V2.953c0-.263.021-.428-.1-.586a.379.379 0 0 0-.248-.133 1.167 1.167 0 0 0-.268.008l.02-.002h-.395c-.051-.191-.18-.262-.547-.234zm1.147.584c-.01-.013.025.108.025.363v9.971c.006.139.005.24-.002.301-.006.06-.017.071-.009.062.007-.008.018-.007-.018-.002s-.107.006-.201.006h-.391c-.002-.041-.001-.071-.004-.115l.039-10.541-.002-.028h.368l.009-.002a.913.913 0 0 1 .184-.007c.028.003.007-.002.002-.008zM9.125 5.287h1.135c.122 0 .222.099.222.221l.004 5.138a.22.22 0 0 1-.22.221l-1.135.002a.222.222 0 0 1-.223-.221l-.004-5.14c0-.122.099-.221.221-.221zM6.818 6.725h1.137a.22.22 0 0 1 .221.22l.004 3.692c0 .122-.097.22-.219.22H6.824a.22.22 0 0 1-.22-.22L6.6 6.945a.217.217 0 0 1 .218-.22zm-2.22 1.459h1.134c.123 0 .223.098.223.22l.004 2.242a.22.22 0 0 1-.221.221H4.602a.22.22 0 0 1-.221-.221l-.004-2.242a.22.22 0 0 1 .221-.22z"/>
</svg>
